public/images/svg-decorator-blob-5.svg

<?xml version="1.0" encoding="utf-8"?>
<!-- Generator: Adobe Illustrator 25.0.0, SVG Export Plug-In . SVG Version: 6.00 Build 0)  -->
<svg version="1.1" id="Layer_1" xmlns="http://www.w3.org/2000/svg" xmlns:xlink="http://www.w3.org/1999/xlink" x="0px" y="0px"
	 viewBox="0 0 600 600" style="enable-background:new 0 0 600 600;" xml:space="preserve">
<style type="text/css">
	.st0{fill:#FCCD04;}
</style>
<g transform="translate(300,300)">
	<path class="st0" d="M86.4-125.7c22.5,23.2,35.6,52.5,63.2,88.6c27.6,36.2,69.8,79.1,74,123.2c4.2,44.2-29.4,89.5-73,114.6
		C107,225.9,53.5,231,5.2,223.8c-48.3-7.1-91.4-26.5-114.7-58.2c-23.3-31.8-26.8-76-29.3-113.5c-2.6-37.5-4.2-68.3-8.2-113.5
		s-10.5-104.7,13.6-127.4s78.7-8.4,122,7.2S63.9-148.9,86.4-125.7z"/>
</g>
</svg>

<svg viewBox="0 0 600 600">
  <g transform="translate(300,300)">
    <path
      d="M86.4,-125.7C108.9,-102.5,122,-73.2,149.6,-37.1C177.2,-0.9,219.4,42,223.6,86.1C227.8,130.3,194.2,175.6,150.6,200.7C107,225.9,53.5,231,5.2,223.8C-43.1,216.7,-86.2,197.3,-109.5,165.6C-132.8,133.8,-136.3,89.6,-138.8,52.1C-141.4,14.6,-143,-16.2,-147,-61.4C-151,-106.6,-157.5,-166.1,-133.4,-188.8C-109.3,-211.5,-54.7,-197.2,-11.4,-181.6C31.9,-166,63.9,-148.9,86.4,-125.7Z"
      fill="currentColor"/>
  </g>
</svg>
